!!!COM: Fux, Johann Joseph
!!!OMD: Gradus ad Parnassum Exercise
!!!YEC: CC0 1.0 Universal (Public Domain). Mark Gotham and FourScoreAndMore.org waive all rights to this document.
**kern	**kern	**kern	**kern
*part4	*part3	*part2	*part1
*staff4	*staff3	*staff2	*staff1
*I"4	*I"3	*I"2	*I"1
*I'Pno	*I'Pno	*I'Pno	*I'Pno
!!LO:LB:g=z
*clefF4	*clefG2	*clefG2	*clefG2
*k[]	*k[]	*k[]	*k[]
!!LO:TX:omd:t=
*M4/4	*M4/4	*M4/4	*M4/4
=156	=156	=156	=156
!	!	!	!LO:TX:a:t=Fig. 176; Species&colon; 2; Modal final&colon; d; Cantus firmus&colon; 4
1D	1a	2r	1f
.	.	2d/	.
=157	=157	=157	=157
1F	1a	2c/	1a
.	.	2d/	.
=158	=158	=158	=158
1E	1g	2e/	1cc
.	.	2g/	.
=159	=159	=159	=159
1D	1a	2f/	1dd
.	.	2e/	.
=160	=160	=160	=160
1G	1b-X	2d/	1b-X
.	.	2e/	.
=161	=161	=161	=161
1F	1cc	2f/	1a
.	.	2a/	.
=162	=162	=162	=162
1A	1cc	2e/	1a
.	.	2f/	.
=163	=163	=163	=163
1G	1dd	2g/	1b
.	.	2d/	.
=164	=164	=164	=164
1F	1a	2f/	1dd
.	.	2a/	.
=165	=165	=165	=165
1E	1ee	2g/	1cc#X
.	.	2e/	.
=166	=166	=166	=166
1D	1a	1f#X	1dd
==	==	==	==
*-	*-	*-	*-
!!!software: music21 v.9.7.1
!!!software: music21 v.9.7.1
!!!software: MuseScore 3.4.2
!!!RDF**kern: > = above
!!!RDF**kern: < = below
